static/logos/polywork-wordmark-color.svg

<svg width="100" height="23" viewBox="0 0 100 23" fill="none" xmlns="http://www.w3.org/2000/svg">
<g clip-path="url(#clip0_1_1606)">
<path d="M7.69531 21.8113V15.1259H14.6883V17.8602C14.6864 18.9087 14.2686 19.9137 13.5266 20.6545C12.7845 21.3952 11.7787 21.8113 10.7303 21.8113H7.69531Z" fill="#88CFB0"/>
<path d="M10.7149 22.3777H7.14844V14.5595H15.2323V17.8602C15.2305 19.0578 14.754 20.2057 13.9071 21.0525C13.0603 21.8993 11.9124 22.3759 10.7149 22.3777ZM8.27431 21.2448H10.7149C11.6132 21.2448 12.4748 20.8885 13.1106 20.2539C13.7464 19.6194 14.1046 18.7585 14.1065 17.8602V15.6924H8.27431V21.2448Z" fill="#2F2F3A"/>
<path d="M14.8516 14.9374V7.8465H21.8446V10.9794C21.8455 11.4988 21.744 12.0133 21.5458 12.4935C21.3476 12.9737 21.0568 13.4101 20.6898 13.7777C20.3228 14.1454 19.8869 14.437 19.4072 14.6359C18.9273 14.835 18.413 14.9374 17.8935 14.9374H14.8516Z" fill="#F2C94C"/>
<path d="M17.8625 15.5038H14.2891V7.28007H22.38V10.9794C22.38 12.1781 21.9042 13.3279 21.0573 14.1762C20.2103 15.0245 19.0612 15.502 17.8625 15.5038ZM15.4219 14.371H17.8625C18.7608 14.3692 19.6217 14.011 20.2562 13.3752C20.8907 12.7393 21.2471 11.8777 21.2471 10.9794V8.39196H15.4219V14.371Z" fill="#2F2F3A"/>
<path d="M14.6612 7.8465H7.70312V14.9374H14.6612V7.8465Z" fill="#BD83CE"/>
<path d="M15.2323 15.5038H7.14844V7.28007H15.2323V15.5038ZM8.23928 14.371H14.0715V8.39196H8.27431L8.23928 14.371Z" fill="#2F2F3A"/>
<path d="M0.570312 7.69224V4.51744C0.570312 3.46956 0.986586 2.46459 1.72755 1.72362C2.46852 0.982657 3.47348 0.566389 4.52136 0.566389H7.52831V7.69224H0.570312Z" fill="#40BE88"/>
<path d="M8.09091 8.22378H0V4.51748C0.00184949 3.31994 0.478391 2.17197 1.32518 1.32518C2.17197 0.478391 3.31994 0.00184949 4.51748 0H8.09091V8.22378ZM1.13287 7.09091H6.99301V1.13287H4.51748C3.61983 1.13287 2.75894 1.48946 2.1242 2.1242C1.48946 2.75894 1.13287 3.61983 1.13287 4.51748V7.09091Z" fill="#2F2F3A"/>
<path d="M14.8516 7.69224V0.566389H17.8586C18.9065 0.566389 19.9114 0.982657 20.6524 1.72362C21.3933 2.46459 21.8096 3.46956 21.8096 4.51744V7.69224H14.8516Z" fill="#FF7474"/>
<path d="M22.38 8.22378H14.2891V0H17.8625C19.06 0.00184949 20.208 0.478391 21.0548 1.32518C21.9016 2.17197 22.3781 3.31994 22.38 4.51748V8.22378ZM15.4219 7.09091H21.2471V4.51748C21.2471 3.61983 20.8905 2.75894 20.2558 2.1242C19.6211 1.48946 18.7601 1.13287 17.8625 1.13287H15.4219V7.09091Z" fill="#2F2F3A"/>
<path d="M14.6612 0.566389H7.70312V7.65727H14.6612V0.566389Z" fill="#6776F9"/>
<path d="M15.2323 8.22378H7.14844V0H15.2323V8.22378ZM8.23928 7.09091H14.0715V1.13287H8.27431L8.23928 7.09091Z" fill="#2F2F3A"/>
<path d="M0.570312 17.8602V15.1259H7.56328V21.8113H4.52136C3.47348 21.8113 2.46852 21.395 1.72755 20.6541C0.986586 19.9131 0.570312 18.9081 0.570312 17.8602Z" fill="#37C2E2"/>
<path d="M8.09091 22.3777H4.51748C3.31994 22.3759 2.17197 21.8993 1.32518 21.0525C0.478391 20.2057 0.00184949 19.0578 0 17.8602V14.5595H8.09091V22.3777ZM1.13287 15.6924V17.8602C1.13287 18.7579 1.48946 19.6187 2.1242 20.2535C2.75894 20.8883 3.61983 21.2448 4.51748 21.2448H6.99301V15.6924H1.13287Z" fill="#2F2F3A"/>
<path d="M7.52831 7.8465H0.570312V14.9374H7.52831V7.8465Z" fill="#F2994A"/>
<path d="M8.09091 15.5038H0V7.28007H8.09091V15.5038ZM1.13287 14.371H6.99301V8.39196H1.13287V14.371Z" fill="#2F2F3A"/>
<path d="M30.5938 15.7934V4.18727H34.5393C35.5257 4.18727 36.3696 4.34529 37.071 4.66132C37.7835 4.97736 38.3259 5.43506 38.6986 6.03444C39.0712 6.63382 39.2575 7.35853 39.2575 8.20853C39.2575 8.79706 39.1424 9.3365 38.9123 9.82685C38.6931 10.3173 38.3752 10.7423 37.9588 11.1019C37.5533 11.4506 37.0656 11.7231 36.4956 11.9192C35.9257 12.1045 35.29 12.1971 34.5886 12.1971C34.216 12.1971 33.8214 12.1645 33.4049 12.099V15.7934H30.5938ZM33.4049 6.55753V9.74518C33.7885 9.79958 34.1393 9.82685 34.4571 9.82685C35.0708 9.82685 35.5421 9.69063 35.871 9.41818C36.2107 9.1349 36.3805 8.72615 36.3805 8.19217C36.3805 7.66909 36.2162 7.26587 35.8874 6.98255C35.5695 6.6992 35.1038 6.55753 34.49 6.55753H33.4049Z" fill="black"/>
<path d="M43.9564 16.0386C43.2988 16.0386 42.685 15.9241 42.1151 15.6953C41.5561 15.4664 41.063 15.145 40.6356 14.7308C40.219 14.3167 39.8957 13.8318 39.6656 13.276C39.4353 12.7202 39.3203 12.1154 39.3203 11.4615C39.3203 10.8077 39.4353 10.2029 39.6656 9.64706C39.9067 9.08035 40.2355 8.59 40.6519 8.17587C41.0794 7.75084 41.5781 7.42392 42.148 7.19504C42.7288 6.9553 43.3535 6.83543 44.0221 6.83543C44.6797 6.83543 45.288 6.94985 45.847 7.17867C46.4169 7.40755 46.91 7.73448 47.3265 8.15951C47.754 8.57364 48.0828 9.0586 48.3129 9.61434C48.543 10.1701 48.6581 10.775 48.6581 11.4289C48.6581 12.0827 48.5376 12.6929 48.2965 13.2597C48.0663 13.8155 47.7375 14.3004 47.31 14.7145C46.8936 15.1286 46.3949 15.4556 45.814 15.6953C45.2442 15.9241 44.6249 16.0386 43.9564 16.0386ZM43.9892 13.6357C44.3509 13.6357 44.6797 13.543 44.9756 13.3578C45.2716 13.1616 45.5017 12.9001 45.666 12.5731C45.8414 12.2352 45.9291 11.8593 45.9291 11.4452C45.9291 11.0201 45.8414 10.6442 45.666 10.3173C45.5017 9.97944 45.2716 9.7179 44.9756 9.53266C44.6797 9.33643 44.3509 9.23839 43.9892 9.23839C43.6276 9.23839 43.2988 9.33643 43.0028 9.53266C42.707 9.7179 42.4713 9.97944 42.296 10.3173C42.1315 10.6442 42.0493 11.0201 42.0493 11.4452C42.0493 11.8593 42.1315 12.2352 42.296 12.5731C42.4713 12.9001 42.707 13.1616 43.0028 13.3578C43.2988 13.543 43.6276 13.6357 43.9892 13.6357Z" fill="black"/>
<path d="M49.3281 15.7934V3.56608H52.0078V15.7934H49.3281Z" fill="black"/>
<path d="M54.6823 19.1609C54.3644 19.1609 54.0631 19.1282 53.7781 19.0628C53.4932 18.9974 53.2246 18.8938 52.9725 18.7522L53.4493 16.7089C53.5699 16.7634 53.7123 16.8124 53.8767 16.8559C54.0521 16.8996 54.2165 16.9213 54.37 16.9213C54.6658 16.9213 54.9234 16.8287 55.1426 16.6434C55.3618 16.4691 55.5481 16.1913 55.7016 15.8098L55.7673 15.6627L52.2656 7.0807H55.2084L57.0167 12.802L58.6278 7.0807H61.4719L57.9867 16.4146C57.636 17.3519 57.1921 18.0438 56.6551 18.4906C56.118 18.9375 55.4605 19.1609 54.6823 19.1609Z" fill="black"/>
<path d="M64.1199 15.7934L61.2266 7.0807H64.0213L65.4022 12.5895L66.9805 7.0807H69.3478L70.9262 12.6222L72.3563 7.0807H75.0521L72.1591 15.7934H69.6766L68.1312 10.3336L66.5695 15.7934H64.1199Z" fill="black"/>
<path d="M79.2997 16.0386C78.6424 16.0386 78.0284 15.9241 77.4585 15.6953C76.8997 15.4664 76.4067 15.145 75.9787 14.7308C75.5627 14.3167 75.2396 13.8318 75.0088 13.276C74.7787 12.7202 74.6641 12.1154 74.6641 11.4615C74.6641 10.8077 74.7787 10.2029 75.0088 9.64706C75.2501 9.08035 75.5787 8.59 75.9955 8.17587C76.4228 7.75084 76.9214 7.42392 77.4913 7.19504C78.0725 6.9553 78.6969 6.83543 79.3655 6.83543C80.0235 6.83543 80.6312 6.94985 81.1906 7.17867C81.7606 7.40755 82.2536 7.73448 82.6704 8.15951C83.0976 8.57364 83.4263 9.0586 83.6564 9.61434C83.8864 10.1701 84.0018 10.775 84.0018 11.4289C84.0018 12.0827 83.8808 12.6929 83.6396 13.2597C83.4095 13.8155 83.0815 14.3004 82.6536 14.7145C82.2375 15.1286 81.7382 15.4556 81.1578 15.6953C80.5878 15.9241 79.9683 16.0386 79.2997 16.0386ZM79.3326 13.6357C79.6941 13.6357 80.0235 13.543 80.3193 13.3578C80.6151 13.1616 80.8452 12.9001 81.0095 12.5731C81.185 12.2352 81.2725 11.8593 81.2725 11.4452C81.2725 11.0201 81.185 10.6442 81.0095 10.3173C80.8452 9.97944 80.6151 9.7179 80.3193 9.53266C80.0235 9.33643 79.6941 9.23839 79.3326 9.23839C78.9711 9.23839 78.6424 9.33643 78.3466 9.53266C78.0508 9.7179 77.8151 9.97944 77.6396 10.3173C77.4752 10.6442 77.3927 11.0201 77.3927 11.4452C77.3927 11.8593 77.4752 12.2352 77.6396 12.5731C77.8151 12.9001 78.0508 13.1616 78.3466 13.3578C78.6424 13.543 78.9711 13.6357 79.3326 13.6357Z" fill="black"/>
<path d="M84.6719 15.7934V7.08063H87.1376L87.2362 8.47007C87.4446 7.99056 87.7348 7.62007 88.1075 7.35853C88.481 7.09699 88.9138 6.9662 89.4061 6.9662C89.5488 6.9662 89.6915 6.9771 89.8341 6.99888C89.9768 7.0207 90.1026 7.05881 90.2117 7.11336L89.9488 9.76147C89.8285 9.7179 89.7026 9.69063 89.5712 9.67972C89.4502 9.65797 89.3243 9.64706 89.1929 9.64706C88.5796 9.64706 88.1187 9.82147 87.8117 10.1701C87.5054 10.508 87.3516 11.0038 87.3516 11.6577V15.7934H84.6719Z" fill="black"/>
<path d="M90.6484 15.7934V3.56608H93.3282V10.5624L96.2219 7.08063H99.2631L95.9093 10.9385L99.6575 15.7934H96.3526L93.3282 11.5106V15.7934H90.6484Z" fill="black"/>
</g>
<defs>
<clipPath id="clip0_1_1606">
<rect width="100" height="22.3776" fill="white"/>
</clipPath>
</defs>
</svg>

<svg xmlns="http://www.w3.org/2000/svg" width="278.261" height="64" fill="none" viewBox="0 0 100 23"><g clip-path="url(#a)"><path fill="#88CFB0" d="M7.695 21.811v-6.685h6.993v2.734a3.959 3.959 0 0 1-3.958 3.951H7.695Z"/><path fill="#2F2F3A" d="M10.715 22.378H7.148v-7.819h8.084v3.301a4.524 4.524 0 0 1-4.517 4.518Zm-2.44-1.133h2.44a3.391 3.391 0 0 0 3.392-3.385v-2.168H8.274v5.553Z"/><path fill="#F2C94C" d="M14.852 14.937v-7.09h6.993v3.132a3.95 3.95 0 0 1-3.951 3.958h-3.042Z"/><path fill="#2F2F3A" d="M17.863 15.504h-3.574V7.28h8.091v3.7a4.525 4.525 0 0 1-4.517 4.524Zm-2.441-1.133h2.44a3.391 3.391 0 0 0 3.385-3.392V8.392h-5.825v5.979Z"/><path fill="#BD83CE" d="M14.661 7.846H7.703v7.091h6.958v-7.09Z"/><path fill="#2F2F3A" d="M15.232 15.504H7.148V7.28h8.084v8.224ZM8.24 14.37h5.832V8.392H8.274l-.035 5.979Z"/><path fill="#40BE88" d="M.57 7.692V4.517A3.951 3.951 0 0 1 4.521.567h3.007v7.125H.57Z"/><path fill="#2F2F3A" d="M8.09 8.224H0V4.517A4.524 4.524 0 0 1 4.517 0h3.574v8.224ZM1.134 7.09h5.86V1.133H4.517a3.385 3.385 0 0 0-3.384 3.384v2.574Z"/><path fill="#FF7474" d="M14.852 7.692V.566h3.007a3.951 3.951 0 0 1 3.95 3.951v3.175h-6.957Z"/><path fill="#2F2F3A" d="M22.38 8.224h-8.09V0h3.573a4.525 4.525 0 0 1 4.517 4.517v3.707ZM15.422 7.09h5.825V4.517a3.385 3.385 0 0 0-3.384-3.384h-2.441V7.09Z"/><path fill="#6776F9" d="M14.661.566H7.703v7.091h6.958V.567Z"/><path fill="#2F2F3A" d="M15.232 8.224H7.148V0h8.084v8.224ZM8.24 7.09h5.832V1.133H8.274L8.24 7.09Z"/><path fill="#37C2E2" d="M.57 17.86v-2.734h6.993v6.685H4.521a3.951 3.951 0 0 1-3.95-3.95Z"/><path fill="#2F2F3A" d="M8.09 22.378H4.518A4.524 4.524 0 0 1 0 17.86v-3.3h8.09v7.818Zm-6.957-6.686v2.168a3.385 3.385 0 0 0 3.384 3.385h2.476v-5.553h-5.86Z"/><path fill="#F2994A" d="M7.528 7.846H.57v7.091h6.958v-7.09Z"/><path fill="#2F2F3A" d="M8.09 15.504H0V7.28h8.09v8.224ZM1.134 14.37h5.86V8.392h-5.86v5.979Z"/><path fill="#000" d="M30.594 15.793V4.187h3.945c.987 0 1.83.158 2.532.474.712.316 1.255.774 1.628 1.373.372.6.559 1.325.559 2.175 0 .588-.116 1.127-.346 1.618a3.62 3.62 0 0 1-.953 1.275 4.423 4.423 0 0 1-1.463.817 6.147 6.147 0 0 1-1.907.278c-.373 0-.768-.032-1.184-.098v3.694h-2.811Zm2.81-9.235v3.187c.384.055.735.082 1.053.082.614 0 1.085-.136 1.414-.409.34-.283.51-.692.51-1.226 0-.523-.165-.926-.494-1.21-.318-.283-.783-.424-1.397-.424h-1.085ZM43.956 16.039a4.896 4.896 0 0 1-1.84-.344 4.62 4.62 0 0 1-1.48-.964 4.403 4.403 0 0 1-.97-1.455 4.693 4.693 0 0 1-.346-1.815c0-.653.115-1.258.346-1.814.24-.567.57-1.057.986-1.471a4.451 4.451 0 0 1 1.496-.981c.58-.24 1.205-.36 1.874-.36.658 0 1.266.115 1.825.344.57.229 1.063.555 1.48.98.427.415.756.9.986 1.455.23.556.345 1.161.345 1.815 0 .654-.12 1.264-.361 1.83a4.287 4.287 0 0 1-.987 1.455 4.562 4.562 0 0 1-1.496.981 4.94 4.94 0 0 1-1.858.344Zm.033-2.403c.362 0 .69-.093.987-.278a2 2 0 0 0 .69-.785 2.41 2.41 0 0 0 .263-1.128c0-.425-.088-.8-.263-1.128a1.86 1.86 0 0 0-.69-.784 1.746 1.746 0 0 0-.987-.295c-.361 0-.69.098-.986.295a1.974 1.974 0 0 0-.707.784 2.476 2.476 0 0 0-.247 1.128c0 .414.083.79.247 1.128.175.327.411.589.707.785.296.185.625.278.986.278ZM49.328 15.793V3.566h2.68v12.227h-2.68ZM54.682 19.16c-.318 0-.619-.032-.904-.097a3.013 3.013 0 0 1-.806-.31l.477-2.044c.12.054.263.103.428.147.175.044.34.065.493.065.296 0 .553-.092.773-.278.219-.174.405-.452.559-.833l.065-.147-3.501-8.582h2.942l1.809 5.721 1.61-5.721h2.845l-3.485 9.334c-.351.937-.795 1.629-1.332 2.076-.537.447-1.194.67-1.973.67Z"/><path fill="#000" d="m64.12 15.793-2.893-8.712h2.794l1.381 5.508 1.579-5.508h2.367l1.578 5.541 1.43-5.541h2.696l-2.893 8.712h-2.482l-1.546-5.46-1.561 5.46h-2.45ZM79.3 16.039a4.897 4.897 0 0 1-1.841-.344 4.63 4.63 0 0 1-1.48-.964 4.423 4.423 0 0 1-.97-1.455 4.697 4.697 0 0 1-.345-1.815c0-.653.115-1.258.345-1.814.241-.567.57-1.057.987-1.471a4.448 4.448 0 0 1 1.495-.981 4.865 4.865 0 0 1 1.874-.36c.659 0 1.266.115 1.826.344a4.28 4.28 0 0 1 1.48.98c.427.415.755.9.985 1.455a4.7 4.7 0 0 1 .346 1.815c0 .654-.121 1.264-.362 1.83a4.278 4.278 0 0 1-.986 1.455 4.563 4.563 0 0 1-1.496.981c-.57.23-1.19.344-1.858.344Zm.033-2.403c.361 0 .69-.093.986-.278.296-.196.526-.458.69-.785a2.41 2.41 0 0 0 .263-1.128c0-.425-.087-.8-.263-1.128a1.861 1.861 0 0 0-.69-.784 1.747 1.747 0 0 0-.986-.295c-.362 0-.69.098-.986.295a1.976 1.976 0 0 0-.707.784 2.477 2.477 0 0 0-.247 1.128c0 .414.082.79.247 1.128.175.327.41.589.707.785.295.185.624.278.986.278ZM84.672 15.793V7.081h2.466l.098 1.39c.209-.48.499-.85.871-1.112a2.207 2.207 0 0 1 1.3-.393c.142 0 .285.011.427.033.143.022.269.06.378.114l-.263 2.648a1.458 1.458 0 0 0-.378-.081 2.134 2.134 0 0 0-.378-.033c-.613 0-1.074.174-1.381.523-.307.338-.46.834-.46 1.488v4.135h-2.68ZM90.648 15.793V3.566h2.68v6.996l2.894-3.481h3.041l-3.354 3.857 3.748 4.855h-3.304l-3.025-4.282v4.282h-2.68Z"/></g><defs><clipPath id="a"><path fill="#fff" d="M0 0h100v22.378H0z"/></clipPath></defs></svg>
